X:200
T: Standing Abbey HP
S: "Roche Collection of Traditional Irish Music" [II/10/210]
L: 1/8
M: 4/4
R: hornpipe
K: D
A2 | dcdf ecAc | dBGB AFDF | EGFA GBgf | edcB AABc |
dcdf e^deg | fefg afdA | BdcB AGFE | D2 d2 d2 :|
B2 | A^GAc ecAc | edcB Adfa | gfeg fedf | (3efe (3dcB (3ABA (3GFE |\
DFAd EGBd |
FAdf afda | BdcB (3ABA (3GFE | (3DFA (3dfa d' z :|
